X:0526
T:A Trip to the Rotunda.
M:6/8
L:1/8
Q:3/8=120
I: :: ::
Z:Jack Campin * www.campin.me.uk * 2009
K:D
      d(f/e/d/c/  d)AG|FAd fad'|bc'd' afd |cee e3 |
      d(f/e/d/c/) dAG |FAd fad'|bc'd' afd'|afd d3::
      d'af        bge |afd dAG |FAd   fad'|bge e2
b/c'/|d'af        bge |afd dAG |FAd   afd'|afd d3:|
<end>
<start>
